X:58
T:Garster's Dream
R:Jig
O:Shetland
M:6/8
K:G
D|\
G2B BGB|cdc BAG|FGA ABA|AdB AFD|\
G2B BGB|cdc BAG|F2E DEF|G3 G2:|*
|:d|\
gag gdB|AcB AGE|gag gdB|ded def|\
gag gdB|AcB AGE|G2E DEF|G3 G2:|
